packages/dnb-eufemia/assets/icons/dog_medium.svg

<svg width="24" height="24" viewBox="0 0 24 24" fill="none" xmlns="http://www.w3.org/2000/svg">
<path d="M20.0077 13.4416C19.5604 16.7816 18.3229 19.8857 16.1571 21.6058M4.14691 13.4416C4.59416 16.7816 5.83167 19.8857 7.99748 21.6058M12.0773 17.8556C13.3009 17.8556 14.2928 17.1969 14.2928 16.3843C14.2928 15.5717 13.3009 14.9129 12.0773 14.9129C10.8537 14.9129 9.86183 15.5717 9.86183 16.3843C9.86183 17.1969 10.8537 17.8556 12.0773 17.8556ZM12.0773 17.8556C11.3845 19.2359 9.74128 21.6058 7.99748 21.6058M12.0773 17.8556C12.7701 19.2359 14.4133 21.6058 16.1571 21.6058M7.23182 2.99057C7.33592 3.3426 7.34634 3.72678 7.23182 4.11617C6.65565 6.07525 5.8731 7.96813 4.89721 9.76321C4.36313 10.7768 2.85731 10.795 2.29872 9.7946C1.32686 8.07606 0.395383 5.63656 1.50115 3.80032C2.14108 2.62066 3.28636 1.73982 4.59394 1.42164C5.75318 1.16043 6.91805 1.92943 7.23182 2.99057ZM7.23182 2.99057C7.92573 2.45093 8.58883 1.90462 9.40564 1.54979C11.0378 0.840775 12.9396 0.816373 14.5895 1.48327C15.4246 1.8208 16.1133 2.34247 16.7992 2.90922M16.7992 2.90922C16.6706 3.29216 16.6487 3.70979 16.7682 4.11617C17.3443 6.07525 18.1269 7.96813 19.1028 9.76321C19.6261 10.7564 21.1399 10.7999 21.7013 9.7946C22.6731 8.07606 23.6046 5.63656 22.4989 3.80032C21.7518 2.42278 19.9504 0.968603 18.2894 1.45712C17.5872 1.66363 17.0265 2.23224 16.7992 2.90922ZM7.99748 21.6058C10.3381 23.4647 13.8165 23.4647 16.1571 21.6058" stroke="black" stroke-width="1.5" stroke-linecap="round" stroke-linejoin="round"/>
<path d="M10 10C10 10.5523 9.55228 11 9 11C8.44772 11 8 10.5523 8 10C8 9.44772 8.44772 9 9 9C9.55228 9 10 9.44772 10 10Z" fill="black"/>
<path d="M16 10C16 10.5523 15.5523 11 15 11C14.4477 11 14 10.5523 14 10C14 9.44772 14.4477 9 15 9C15.5523 9 16 9.44772 16 10Z" fill="black"/>
</svg>

<svg width="24" height="24" viewBox="0 0 24 24" fill="none" xmlns="http://www.w3.org/2000/svg"><path d="M20.008 13.442c-.448 3.34-1.685 6.444-3.85 8.164M4.146 13.442c.447 3.34 1.685 6.444 3.85 8.164m4.08-3.75c1.224 0 2.216-.66 2.216-1.472 0-.812-.992-1.471-2.216-1.471-1.223 0-2.215.659-2.215 1.471 0 .813.992 1.472 2.215 1.472Zm0 0c-.693 1.38-2.336 3.75-4.08 3.75m4.08-3.75c.693 1.38 2.336 3.75 4.08 3.75M7.232 2.99c.104.352.114.736 0 1.125a28.889 28.889 0 0 1-2.335 5.647c-.534 1.014-2.04 1.032-2.598.032C1.327 8.076.395 5.637 1.5 3.8a4.86 4.86 0 0 1 3.093-2.378c1.16-.262 2.324.507 2.638 1.569Zm0 0c.694-.54 1.357-1.086 2.174-1.441a6.769 6.769 0 0 1 5.183-.067c.836.338 1.524.86 2.21 1.426m0 0a2 2 0 0 0-.03 1.207 28.884 28.884 0 0 0 2.334 5.647c.523.993 2.037 1.037 2.598.032.972-1.719 1.904-4.158.798-5.995-.747-1.377-2.549-2.831-4.21-2.343A2.284 2.284 0 0 0 16.8 2.91ZM7.997 21.606c2.341 1.859 5.82 1.859 8.16 0M8.823 10.005h.346m5.652 0h.346m-5.919 0c0 .183-.16.243-.248.243-.092 0-.252-.06-.252-.243 0-.197.16-.257.252-.257.088 0 .248.06.248.257Zm5.998 0c0 .183-.16.243-.248.243-.091 0-.252-.06-.252-.243 0-.197.16-.257.252-.257.088 0 .248.06.248.257Z" stroke="#000" stroke-width="1.5" stroke-linecap="round" stroke-linejoin="round"/></svg>
